packages/foundations/assets/icons/functional/images/audio & video/play_24.svg

<svg width="24" height="24" viewBox="0 0 24 24" fill="none" xmlns="http://www.w3.org/2000/svg">
<g clip-path="url(#clip0_184_360)">
<path fill-rule="evenodd" clip-rule="evenodd" d="M8 4.99988C8.438 4.99988 8.813 5.12488 9.188 5.37588L17.125 10.3239C17.656 10.7319 18 11.3579 18 12.0159C18 12.6729 17.687 13.2999 17.125 13.6759L9.187 18.6559C8.84192 18.8775 8.4411 18.9968 8.031 18.9999C7.76553 19.0036 7.50197 18.9545 7.25565 18.8554C7.00933 18.7564 6.78516 18.6093 6.59617 18.4229C6.40719 18.2364 6.25716 18.0142 6.15481 17.7692C6.05247 17.5243 5.99984 17.2614 6 16.9959V7.03588C6 5.96988 6.813 4.99988 8 4.99988ZM8 6.99988V16.9999L16 11.9999L8 6.99988Z" fill="#1A1C1F"/>
</g>
<defs>
<clipPath id="clip0_184_360">
<rect width="24" height="24" fill="white"/>
</clipPath>
</defs>
</svg>

<svg xmlns="http://www.w3.org/2000/svg" width="24" height="24" fill="none"><g clip-path="url(#a)"><path fill="#1A1C1F" fill-rule="evenodd" d="M8 5c.438 0 .813.125 1.188.376l7.937 4.948c.531.408.875 1.034.875 1.692s-.313 1.284-.875 1.66l-7.938 4.98A2.17 2.17 0 0 1 8.031 19 2.003 2.003 0 0 1 6 16.996v-9.96C6 5.97 6.813 5 8 5m0 2v10l8-5z" clip-rule="evenodd"/></g><defs><clipPath id="a"><path fill="#fff" d="M0 0h24v24H0z"/></clipPath></defs></svg>
